X: 5
T: Greensleeves
R: jig
M: 6/8
L: 1/8
K: Gmaj
|:g3 gfe|dBG GAB|c2A dcB|cBc A2d|g3 gfe|dBG GAB|cBA def||:b3 g2b|a3 f2a|gfg efg|faf d3|b3 gab|aaf d2f|efg agf|1 g3 g2z:|


Tune 1598	Setting 15010

